!!!OTL: ALS CHRIST DER HERR IN GARTEN GING
!!!ARE: Europa, Mitteleuropa, Deutschland, Schlesien
!!!SCT: E1959A
!!!YEM: Copyright 1995, estate of Helmut Schaffrath.
**kern
*ICvox
*Ivox
*M3/4
*k[b-e-a-d-]
*f:
=1
{4f
4f
4f
=2
4.cc
8dd-
4cc
=3
4.cc
8b-
4a-
=4
2g
4r}
=5
{4b-
4b-
4b-
=6
4.b-
8a-
4g
=7
4a-
4b-
4cc
=8
2f}
{4cc
=9
4b-
4g
8a-
8g
=10
2f
4e-
=11
2a-
4b-
=12
2cc
4r}
=13
{4cc
4cc
4cc
=14
2b-
4cc
=15
4a-
4.g
8f
=16
2f
4r}
==
!!!AGN: geistlich, Fest - Lied, Biblischer Stoff, Passion
!!!ONB: ESAC (Essen Associative Code) Database: ERK3
!!!AMT: simple triple
!!!AIN: vox
!!!EED: Helmut Schaffrath
!!!EEV: 1.0
*-
